src/assets/icons/download.svg

<svg width="14" height="14" viewBox="0 0 14 14" fill="none" xmlns="http://www.w3.org/2000/svg">
<g id="download">
<g clip-path="url(#clip0_156_4648)">
<path id="Vector" fill-rule="evenodd" clip-rule="evenodd" d="M7.6 0.6C7.6 0.268629 7.33137 0 7 0C6.66863 0 6.4 0.268629 6.4 0.6V7.95147L4.22426 5.77574C3.98995 5.54142 3.61005 5.54142 3.37574 5.77574C3.14142 6.01005 3.14142 6.38995 3.37574 6.62426L6.57574 9.82426C6.63326 9.88179 6.69956 9.92519 6.77033 9.95447C6.84107 9.98381 6.91865 10 7 10C7.08135 10 7.15893 9.98381 7.22967 9.95447C7.30044 9.92519 7.36674 9.88179 7.42426 9.82426L10.6243 6.62426C10.8586 6.38995 10.8586 6.01005 10.6243 5.77574C10.3899 5.54142 10.0101 5.54142 9.77574 5.77574L7.6 7.95147V0.6ZM0.6 8.8C0.931371 8.8 1.2 9.06863 1.2 9.4V11.8C1.2 12.4165 1.6354 12.8 2.024 12.8H11.976C12.3646 12.8 12.8 12.4165 12.8 11.8V9.4C12.8 9.06863 13.0686 8.8 13.4 8.8C13.7314 8.8 14 9.06863 14 9.4V11.8C14 12.9435 13.1554 14 11.976 14H2.024C0.844599 14 0 12.9435 0 11.8V9.4C0 9.06863 0.268629 8.8 0.6 8.8Z" fill="black"/>
</g>
</g>
<defs>
<clipPath id="clip0_156_4648">
<rect width="14" height="14" fill="white"/>
</clipPath>
</defs>
</svg>

<svg xmlns="http://www.w3.org/2000/svg" fill="none" viewBox="0 0 14 14"><g clip-path="url(#a)"><path fill="#000" fill-rule="evenodd" d="M7.6.6a.6.6 0 0 0-1.2 0v7.351L4.224 5.776a.6.6 0 1 0-.848.848l3.2 3.2a.6.6 0 0 0 .848 0l3.2-3.2a.6.6 0 0 0-.848-.848L7.6 7.95zm-7 8.2a.6.6 0 0 1 .6.6v2.4c0 .616.435 1 .824 1h9.952c.389 0 .824-.384.824-1V9.4a.6.6 0 1 1 1.2 0v2.4c0 1.143-.845 2.2-2.024 2.2H2.024C.844 14 0 12.944 0 11.8V9.4a.6.6 0 0 1 .6-.6" clip-rule="evenodd"/></g><defs><clipPath id="a"><path fill="#fff" d="M0 0h14v14H0z"/></clipPath></defs></svg>
